X:1
T:Vier Gesänge
T:Jägerlied
T:Robert Schumann
T:Eduard Mörike
T:Jägerlied
T:Nr. 3 aus Vier Gesänge, Op. 59
T:CPDL - Creative Commons Attribution Non Commercial 3.0
T:CPDL - Creative Commons Attribution Non Commercial 3.0
T:CPDL - Creative Commons Attribution Non Commercial 3.0
C:Robert Schumann
Z:Eduard Mörike
Z:CPDL - Creative Commons Attribution Non Commercial 3.0
%%score [ 1 2 ( 3 4 ) ]
L:1/8
Q:1/4=90
M:2/4
K:Eb
V:1 treble nm="Sopran" snm="S"
V:2 treble nm="Alt"
V:3 bass nm="Tenor\nBass"
V:4 bass 
V:1
"^Mäßig"!p! G>A B=B | c3 G | .A2 .G2 | .A2 z2 | A>c fe | d3 F | .B2 .A2 | .G2 z2 | G>=A Bc | %9
w: Zier- lich ist des|Vo- gels|Tritt im|Schnee,|wenn er wan- delt|auf des|Ber- ges|Höh';|zier- li- cher schreibt|
 d3 =A | c3 B | B2"^< >" B2- | BB =AG | F3 d | e2 =A2 | d2"^< >" B2- | BB =AG | F2 d2 | e3 =A | %19
w: Lieb- chens|lie- be|Hand, schreibt|_ ein Brief- lein|mir in|fer- ne|Land', schreibt|_ ein Brief- lein|mir in|fer- ne|
 B2 B>B | f3 e | d2 c2 | c>B B2 | B2 B2 | G>G FF | c2 =B2 | d4 | e3 =B | c>c _BA | =d3 =A | %30
w: Land'. In die|Lüf- te|hoch ein|Rei- her steigt,|da- hin|we- der Pfeil noch|Ku- gel|fleugt;|tau- send-|mal so hoch und|so ge-|
 B2 d2- | d2 =A2 | B>B =AG | c3 G | _A2!<(! A>!<)!A |!>(! g2!>)! f2 | e3 G | B3 A | %38
w: schwind, tau-|* send-|mal so hoch und|so ge-|schwind die Ge-|dan- ken|treu- er|Lie- be|
 G2!<(! c>c!<)! |!>(! g2 f2!>)! | _e2[Q:1/4=70]"^ritard." G2 | B3 D | E2 z2 |] %43
w: sind, die Ge-|dan- ken|treu- er|Lie- be|sind.|
V:2
 z4 |!p! =E>F ^FG | .=F2 .=E2 | .A2 .G2 | .A2 z2 | F>B dc | .B2 .D2 | .E2 .F2 | .G z z2 | %9
w: |Zier- lich ist des|Vo- gels|Tritt im|Schnee,|wenn er wan- delt|auf des|Ber- ges|Höh';|
 ^F>G ^G=A | ^F3 =G | G2"^< >" G2- | GG B,B, | B,3 F | F2 E2 | D2"^< >" D2- | DD ^CC | D2 F2 | %18
w: zier- li- cher schreibt|Lieb- chens|Hand, schreibt-|* ein Brief- lein|mir in|fer- ne|Land', schreibt|_ ein Brief- lein|mir in|
 F3 F | F2 B>B | _A3 A | A2 A2 | A>A A2 | B2 B2 | G>G FE | E2 F2 | F4 | E3 E | E>E EE | =D3 D | %30
w: fer- ne|Land'. In die|Lüf- te|hoch ein|Rei- her steigt,|da- hin|we- der Pfeil noch|Ku- gel|fleugt;|tau- send-|mal so hoch und|so ge-|
 D2 D2- | D2 D2 | D>D ^FG | C3 C | C2 z2 | z2 F>F | G3 E | D2 F2 | =EE!<(! FG!<)! |!>(! B2 A2!>)! | %40
w: schwind tau-|* send-|mal so hoch und|so ge-|schwind|die Ge-|dan- ken|treu- er|Lie- be, die Ge-|dan- ken|
 G2 _E2 | D3 B, | B,2 z2 |] %43
w: treu- er|Lie- be|sind.|
V:3
 z4 |!p! C>C CC | .C2 .C2 | .C2 .=E2 | .F2 z2 | B,>B, B,B, | .B,2 .B,2 | .B,2 .D2 | .E z z2 | %9
 =A,>A, DD | D3 D | D2"^< >" ^C2- | C^C CC | D3 B, | =A,2 =C2 | =A,2"^< >" B,2- | B,B, B,B, | %17
 B,2 B,2 | =A,3 E | D2 B,>B, | D3 E | F2 E2 | E>D D2 | B,2 B,2 | G,>G, F,E, | C2 D2 | =B,4 | %27
 _B,3 E | E>E _DC | =A,3 =D | D2 =A,2- | A,2 D2 | D>D CB, | G,3 C | C2 z2 | z2 C>C | B,3 B, | %37
 F2 D2 | GC!<(! D=E!<)! |!>(! C2!>)! C2 | B,2 =A,2 | _A,3 A, | G,2 z2 |] %43
V:4
 x4 | C,>D, E,=E, | .F,2 .C,2 | .F,2 .C,2 | .F,2 x2 | B,>B, B,A, | .G,2 .F,2 | .E,2 .B,,2 | %8
 .E, x x2 | D,>=E, =F,^F, | =A,3 G, | G,2 =E,2- | E,=E, E,E, | F,3 F, | F,2 F,2 | ^F,2 G,2- | %16
 G,G, =E,E, | F,2 F,2 | F,3 F, | B,2 B,>B, | B,3 B, | B,2 B,2 | B,>B, B,2 | B,2 B,2 | G,>G, F,E, | %25
 A,2 A,2 | G,4 | G,3 G, | A,>A, B,C | ^F,3 F, | G,2 ^F,2- | F,2 ^F,2 | G,>G, =A,B, | =E,3 E, | %34
 F,2 x2 | x2 A,>A, | B,3 B, | B,3 =B, | CC =B,_B, | =E,2 F,2 | B,2 B,2 | B,,3 B,, | E,2 x2 |] %43

